src/icons/svg/hamburger.svg

<?xml version="1.0" encoding="UTF-8"?>
<svg width="40px" height="36px" viewBox="0 0 40 36" version="1.1" xmlns="http://www.w3.org/2000/svg"
>
    <path d="M14.8,14.1 L38.8,14.1 C39.02,14.1 39.2,13.92 39.2,13.7 L39.2,10.9 C39.2,10.68 39.02,10.5 38.8,10.5 L14.8,10.5 C14.58,10.5 14.4,10.68 14.4,10.9 L14.4,13.7 C14.4,13.92 14.58,14.1 14.8,14.1 Z M14.4,24.3 C14.4,24.52 14.58,24.7 14.8,24.7 L38.8,24.7 C39.02,24.7 39.2,24.52 39.2,24.3 L39.2,21.5 C39.2,21.28 39.02,21.1 38.8,21.1 L14.8,21.1 C14.58,21.1 14.4,21.28 14.4,21.5 L14.4,24.3 Z M39.6,0 L0.4,0 C0.18,0 0,0.18 0,0.4 L0,3.2 C0,3.42 0.18,3.6 0.4,3.6 L39.6,3.6 C39.82,3.6 40,3.42 40,3.2 L40,0.4 C40,0.18 39.82,0 39.6,0 Z M39.6,31.6 L0.4,31.6 C0.18,31.6 0,31.78 0,32 L0,34.8 C0,35.02 0.18,35.2 0.4,35.2 L39.6,35.2 C39.82,35.2 40,35.02 40,34.8 L40,32 C40,31.78 39.82,31.6 39.6,31.6 Z M1.52,24.105 L9.335,17.95 C9.44161064,17.8662012 9.50385581,17.7381026 9.50385581,17.6025 C9.50385581,17.4668974 9.44161064,17.3387988 9.335,17.255 L1.52,11.095 C1.23,10.865 0.799999977,11.07 0.799999977,11.44 L0.799999977,23.755 C0.799999977,23.9253976 0.897199111,24.080865 1.05044922,24.1553616 C1.20369933,24.2298582 1.38603415,24.2103019 1.52,24.105 L1.52,24.105 Z"
          id="形状"></path>
</svg>

<svg width="40" height="36" xmlns="http://www.w3.org/2000/svg"><path d="M14.8 14.1h24c.22 0 .4-.18.4-.4v-2.8c0-.22-.18-.4-.4-.4h-24c-.22 0-.4.18-.4.4v2.8c0 .22.18.4.4.4zm-.4 10.2c0 .22.18.4.4.4h24c.22 0 .4-.18.4-.4v-2.8c0-.22-.18-.4-.4-.4h-24c-.22 0-.4.18-.4.4v2.8zM39.6 0H.4C.18 0 0 .18 0 .4v2.8c0 .22.18.4.4.4h39.2c.22 0 .4-.18.4-.4V.4c0-.22-.18-.4-.4-.4zm0 31.6H.4c-.22 0-.4.18-.4.4v2.8c0 .22.18.4.4.4h39.2c.22 0 .4-.18.4-.4V32c0-.22-.18-.4-.4-.4zM1.52 24.105l7.815-6.155a.442.442 0 0 0 0-.695l-7.815-6.16a.444.444 0 0 0-.72.345v12.315a.445.445 0 0 0 .72.35z"/></svg>
